source/img/sprite/social-ok.svg

<svg width="10" height="17" viewBox="0 0 10 17" fill="none" xmlns="http://www.w3.org/2000/svg">
<path d="M4.68026 2.88903C5.57876 2.88903 6.30946 3.64334 6.30946 4.57085C6.30946 5.49557 5.57876 6.24987 4.68026 6.24987C3.78177 6.24987 3.05107 5.49557 3.05107 4.57085C3.05107 3.64334 3.78177 2.88903 4.68026 2.88903ZM4.68026 8.63012C6.85072 8.63012 8.61523 6.80862 8.61523 4.57085C8.61523 2.33029 6.85072 0.508789 4.68026 0.508789C2.5098 0.508789 0.747998 2.33029 0.747998 4.57085C0.747998 6.80862 2.5098 8.63012 4.68026 8.63012ZM6.27157 11.9435C7.07264 11.7535 7.84394 11.4266 8.55569 10.9657C9.09425 10.6164 9.25663 9.8817 8.91834 9.32575C8.57734 8.76701 7.86829 8.59939 7.32703 8.95139C5.71678 9.99624 3.64375 9.99624 2.03079 8.95139C1.49223 8.59939 0.780474 8.76701 0.442186 9.32575C0.103897 9.8817 0.266275 10.6164 0.804831 10.9657C1.51659 11.4266 2.28789 11.7535 3.08895 11.9435L0.888726 14.212C0.439479 14.6757 0.439479 15.43 0.888726 15.8938C1.11606 16.1257 1.40834 16.243 1.70332 16.243C1.99831 16.243 2.2933 16.1257 2.52063 15.8938L4.68026 13.6644L6.8426 15.8938C7.29185 16.3603 8.01985 16.3603 8.4718 15.8938C8.92105 15.43 8.92105 14.6757 8.4718 14.212L6.27157 11.9435Z" fill="#030A1A"/>
</svg>

<svg width="10" height="17" viewBox="0 0 10 17" fill="none" xmlns="http://www.w3.org/2000/svg">
  <path d="M4.68 2.889c.899 0 1.63.754 1.63 1.682 0 .925-.731 1.679-1.63 1.679-.898 0-1.629-.754-1.629-1.68 0-.927.73-1.681 1.63-1.681Zm0 5.741c2.17 0 3.935-1.821 3.935-4.06C8.615 2.33 6.851.51 4.68.51 2.51.509.748 2.33.748 4.57c0 2.238 1.762 4.06 3.932 4.06Zm1.592 3.313a7.294 7.294 0 0 0 2.284-.977c.538-.35.7-1.084.362-1.64a1.13 1.13 0 0 0-1.591-.375 4.866 4.866 0 0 1-5.296 0 1.127 1.127 0 0 0-1.589.375 1.213 1.213 0 0 0 .363 1.64c.712.46 1.483.788 2.284.978l-2.2 2.268a1.218 1.218 0 0 0 0 1.682c.227.232.52.349.814.349.295 0 .59-.117.818-.35l2.16-2.229 2.162 2.23c.449.466 1.177.466 1.629 0 .449-.464.449-1.218 0-1.682l-2.2-2.268Z" fill="#030A1A"/>
</svg>
